X: 12
T:Banks of the Dee, Fieldtown
M:6/8
L:1/8
A:Fieldtown
P:A(AB)2(AC)2
K:G
P:A
|:G| DEF GAB| ced cBA| BGE Ddc| BcA G2:|
P:B
|:G/A/  | Bcd d2g| ede dBG| Bcd efg| GAG FED|
 cec BdB| GFG AFD| GFE Ddc| BcA G2:|
P:C
|:G|(2Bc d3 | d3  g3 |(2ed e3 |(2dB G3 |
(2Bc d3 |(2ef g3 |(2GA G3 |(2FE D3 |
 cec BdB| GFG AFD| GFE Ddc| BcA G2:|
